X:465
T:  Drei Wochen vor Ostern (5-61), S. 100f
N: P0735
O: Lothringen
S: MERKELBACH-PINCK, Angelika: Verklingende Weisen, Bd 5, Kassel 1962]
R: ???, Liebe, Heirat]
M: 3/4
L: 1/8
K: G
D2 | A2A2F2 | A2A2B2 | A2A2G2 | F2z2
F2 | G2G2G2 | F2F2G2 | E2E2E2 | D2z2
DD | D2D2B,2 | D2z2AA | d2d2G2 | F2z2
F2 | G2G2G2 | F2F2G2 | E2E2E2 | D2z2

